X: 84
M: 9/8
L: 1/8
K: A
f |\
ecA ABA cef | =gfg B^GB d2f |\
ecA ABA ceg | aga cAc e2f/g/ |\
agf ecA cef |
=gfg B^GB d2B |\
|: f |\
ecA acA ecA | B=GB ^gdB d2e |\
ecA acA ecA |
{b}agf ecA efg |\
agf ecA cef | {a}=gfg B^GB d2B |\

